X: 40
T: No_134_Whooping_Crane_Dance_Song_(b).krn
N: Derived from No_134_Whooping_Crane_Dance_Song_(b).krn
%%abc-version 2.0
%%abcx-abcm2ps-target-version 5.9.1 (29 Sep 2008)
%%abc-creator hum2abc beta
%%abcx-conversion-date 2019/03/15 08:38:45
%%humdrum-veritas 1820119111
%%humdrum-veritas-data 2050139095
%%linebreak <none>
%%barnumbers 0
L: 1/8
M: 2/4
K: E clef=bass
[K:clef=bass][M:2/4]z7/B,/ | 
B,A,/G,/ F, z ||  
[M:3/4](A,3/F,/) A,/F,/F,/F,/ E,B, ]|:  
[M:2/4]B,A,/G,/ F, z | 
E,E, B,,B,, | 
B,,2B,,E,/E,/ | 
E,F, F, z | 
[M:3/4](A,3/F,/) A,/F,/F,/F,/ E,B, :|]  



